client/public/assets/icons/utility/like.svg

<?xml version="1.0"?><svg xmlns="http://www.w3.org/2000/svg" width="52" height="52" viewBox="0 0 52 52"><g fill="#fff"><path d="m10.5 21h-5c-0.8 0-1.5 0.7-1.5 1.5v23c0 0.8 0.7 1.5 1.5 1.5h2.5c2.2 0 4-1.8 4-4v-20.5c0-0.8-0.7-1.5-1.5-1.5z m33.5 1h-6c-2.2 0-4-1.8-4-4v-10c0-2.2-1.8-4-4-4h-2.5c-0.8 0-1.5 0.7-1.5 1.5v6c0 5.3-3.7 10.5-8.5 10.5-0.8 0-1.5 0.7-1.5 1.5v20c0 0.8 0.6 1.5 1.4 1.5 6.8 0.3 9.1 3 16.2 3 7.5 0 14.4-0.8 14.4-9.5v-12.5c0-2.2-1.8-4-4-4z"></path></g></svg>

<?xml version="1.0" encoding="utf-8"?>
<!-- Generator: Adobe Illustrator 18.1.1, SVG Export Plug-In . SVG Version: 6.00 Build 0)  -->
<svg version="1.1" id="Layer_1" xmlns="http://www.w3.org/2000/svg" xmlns:xlink="http://www.w3.org/1999/xlink" x="0px" y="0px"
	 width="52px" height="52px" viewBox="0 0 52 52" enable-background="new 0 0 52 52" xml:space="preserve">
<g>
	<path fill="#FFFFFF" d="M10.5,21h-5C4.7,21,4,21.7,4,22.5v23C4,46.3,4.7,47,5.5,47H8c2.2,0,4-1.8,4-4V22.5C12,21.7,11.3,21,10.5,21
		z"/>
	<path fill="#FFFFFF" d="M44,22h-6c-2.2,0-4-1.8-4-4V8c0-2.2-1.8-4-4-4h-2.5C26.7,4,26,4.7,26,5.5v6c0,5.3-3.7,10.5-8.5,10.5
		c-0.8,0-1.5,0.7-1.5,1.5v20c0,0.8,0.6,1.5,1.4,1.5c6.8,0.3,9.1,3,16.2,3c7.5,0,14.4-0.8,14.4-9.5v-5V26C48,23.8,46.2,22,44,22z"/>
</g>
</svg>
